svg/editor/pencil_2_fill.svg

<?xml version="1.0" encoding="UTF-8"?>
<svg width="24px" height="24px" viewBox="0 0 24 24" version="1.1" xmlns="http://www.w3.org/2000/svg" xmlns:xlink="http://www.w3.org/1999/xlink">
    <title>pencil_2_fill</title>
    <g id="页面-1" stroke="none" stroke-width="1" fill="none" fill-rule="evenodd">
        <g id="Editor" transform="translate(-528.000000, -240.000000)" fill-rule="nonzero">
            <g id="pencil_2_fill" transform="translate(528.000000, 240.000000)">
                 <path d="M24,0 L24,24 L0,24 L0,0 L24,0 Z M12.5934901,23.257841 L12.5819402,23.2595131 L12.5108777,23.2950439 L12.4918791,23.2987469 L12.4918791,23.2987469 L12.4767152,23.2950439 L12.4056548,23.2595131 C12.3958229,23.2563662 12.3870493,23.2590235 12.3821421,23.2649074 L12.3780323,23.275831 L12.360941,23.7031097 L12.3658947,23.7234994 L12.3769048,23.7357139 L12.4804777,23.8096931 L12.4953491,23.8136134 L12.4953491,23.8136134 L12.5071152,23.8096931 L12.6106902,23.7357139 L12.6232938,23.7196733 L12.6232938,23.7196733 L12.6266527,23.7031097 L12.609561,23.275831 C12.6075724,23.2657013 12.6010112,23.2592993 12.5934901,23.257841 L12.5934901,23.257841 Z M12.8583906,23.1452862 L12.8445485,23.1473072 L12.6598443,23.2396597 L12.6498822,23.2499052 L12.6498822,23.2499052 L12.6471943,23.2611114 L12.6650943,23.6906389 L12.6699349,23.7034178 L12.6699349,23.7034178 L12.678386,23.7104931 L12.8793402,23.8032389 C12.8914285,23.8068999 12.9022333,23.8029875 12.9078286,23.7952264 L12.9118235,23.7811639 L12.8776777,23.1665331 C12.8752882,23.1545897 12.8674102,23.1470016 12.8583906,23.1452862 L12.8583906,23.1452862 Z M12.1430473,23.1473072 C12.1332178,23.1423925 12.1221763,23.1452606 12.1156365,23.1525954 L12.1099173,23.1665331 L12.0757714,23.7811639 C12.0751323,23.7926639 12.0828099,23.8018602 12.0926481,23.8045676 L12.108256,23.8032389 L12.3092106,23.7104931 L12.3186497,23.7024347 L12.3186497,23.7024347 L12.3225043,23.6906389 L12.340401,23.2611114 L12.337245,23.2485176 L12.337245,23.2485176 L12.3277531,23.2396597 L12.1430473,23.1473072 Z" id="MingCute" fill-rule="nonzero"></path>
                <path d="M19,19 C19.5523,19 20,19.4477 20,20 C20,20.51285 19.613973,20.9355092 19.1166239,20.9932725 L19,21 L12,21 C11.4477,21 11,20.5523 11,20 C11,19.48715 11.386027,19.0644908 11.8833761,19.0067275 L12,19 L19,19 Z M16.096,4.36822 C17.0723,3.39191 18.6552,3.39191 19.6315,4.36822 C20.5653522,5.30208174 20.6059544,6.79094234 19.7533068,7.77306485 L19.6315,7.90375 L8.73548,18.7998 C8.6400875,18.8952 8.53241562,18.9771563 8.41545969,19.0435594 L8.29552,19.1047 L4.4914,20.8338 C3.6827248,21.201384 2.85254867,20.4173366 3.12591076,19.6093424 L3.16591,19.5083 L4.89505,15.7042 C4.9508725,15.581425 5.02291968,15.4668625 5.10911101,15.3636344 L5.19994,15.2643 L16.096,4.36822 Z" id="形状" fill="#09244B"></path>
            </g>
        </g>
    </g>
</svg>

<svg xmlns="http://www.w3.org/2000/svg" width="24" height="24"><g fill="none" fill-rule="nonzero"><path d="M24 0v24H0V0h24ZM12.593 23.258l-.011.002-.071.035-.02.004-.014-.004-.071-.035c-.01-.004-.019-.001-.024.005l-.004.01-.017.428.005.02.01.013.104.074.015.004.012-.004.104-.074.012-.016.004-.017-.017-.427c-.002-.01-.009-.017-.017-.018Zm.265-.113-.013.002-.185.093-.01.01-.003.011.018.43.005.012.008.007.201.093c.012.004.023 0 .029-.008l.004-.014-.034-.614c-.003-.012-.01-.02-.02-.022Zm-.715.002a.023.023 0 0 0-.027.006l-.006.014-.034.614c0 .012.007.02.017.024l.015-.002.201-.093.01-.008.004-.011.017-.43-.003-.012-.01-.01-.184-.092Z"/><path fill="#09244B" d="M19 19a1 1 0 0 1 .117 1.993L19 21h-7a1 1 0 0 1-.117-1.993L12 19h7ZM16.096 4.368a2.5 2.5 0 0 1 3.657 3.405l-.122.13L8.735 18.8a1.5 1.5 0 0 1-.32.244l-.12.06-3.804 1.73c-.808.367-1.638-.417-1.365-1.225l.04-.1 1.73-3.805a1.5 1.5 0 0 1 .213-.34l.09-.1L16.097 4.368Z"/></g></svg>
